assets/img/item4.svg

<svg width="48" height="48" viewBox="0 0 48 48" fill="none" xmlns="http://www.w3.org/2000/svg">
<path d="M24 0.5C36.9787 0.5 47.5 11.0213 47.5 24C47.5 36.9787 36.9787 47.5 24 47.5C11.0213 47.5 0.5 36.9787 0.5 24C0.5 11.0213 11.0213 0.5 24 0.5Z" fill="#151515" stroke="#EFBC33"/>
<path d="M34.6667 18.6667V14.6667C34.6667 13.1939 33.4728 12 32 12H14.6667C13.1939 12 12 13.1939 12 14.6667V33.3333C12 34.8061 13.1939 36 14.6667 36H21.3333" stroke="#EFBC33" stroke-width="1.5" stroke-linecap="round" stroke-linejoin="round"/>
<path d="M17.334 18.6667H24.0007" stroke="#EFBC33" stroke-width="1.5" stroke-linecap="round" stroke-linejoin="round"/>
<path d="M17.334 24.0007H21.334" stroke="#EFBC33" stroke-width="1.5" stroke-linecap="round" stroke-linejoin="round"/>
<path d="M17.334 29.3327H18.6673" stroke="#EFBC33" stroke-width="1.5" stroke-linecap="round" stroke-linejoin="round"/>
<path fill-rule="evenodd" clip-rule="evenodd" d="M28 29.3337L27.2194 28.553C26.8657 28.1994 26.3861 28.0007 25.8859 28.0007C25.3857 28.0007 24.9061 28.1994 24.5524 28.553V28.553C23.9168 29.1886 23.8181 30.1846 24.3167 30.9325L26.9034 34.813C27.398 35.555 28.2307 36.0007 29.1224 36.0007H34.1838C35.5287 36.0006 36.6631 34.9992 36.8299 33.6647L37.3126 29.8022C37.4903 28.3793 36.511 27.0705 35.0957 26.8397L32 26.3349V23.334C32 22.2294 31.1046 21.334 30 21.334V21.334C28.8954 21.334 28 22.2294 28 23.334V29.3337Z" stroke="#EFBC33" stroke-width="1.5" stroke-linecap="round" stroke-linejoin="round"/>
</svg>

<svg xmlns="http://www.w3.org/2000/svg" width="48" height="48" fill="none"><path fill="#151515" stroke="#EFBC33" d="M24 .5C36.979.5 47.5 11.021 47.5 24S36.979 47.5 24 47.5.5 36.979.5 24 11.021.5 24 .5Z"/><path stroke="#EFBC33" stroke-linecap="round" stroke-linejoin="round" stroke-width="1.5" d="M34.667 18.667v-4A2.667 2.667 0 0 0 32 12H14.667A2.667 2.667 0 0 0 12 14.667v18.666A2.667 2.667 0 0 0 14.667 36h6.666M17.334 18.667h6.667M17.334 24h4M17.334 29.333h1.333"/><path stroke="#EFBC33" stroke-linecap="round" stroke-linejoin="round" stroke-width="1.5" d="m28 29.334-.78-.781a1.886 1.886 0 0 0-2.668 0v0a1.886 1.886 0 0 0-.235 2.38l2.586 3.88a2.67 2.67 0 0 0 2.22 1.188h5.06a2.667 2.667 0 0 0 2.647-2.336l.483-3.863a2.667 2.667 0 0 0-2.217-2.962L32 26.335v-3.001a2 2 0 0 0-2-2v0a2 2 0 0 0-2 2z" clip-rule="evenodd"/></svg>
